src/home/img/enterprise.svg

<svg height="450" viewBox="0 0 450 450" width="450" xmlns="http://www.w3.org/2000/svg"><g fill="#000" fill-rule="nonzero"><g transform="translate(62 176)"><path d="m49.390625 149.875h-17.03125c-2.8218299 0-5.109375 2.287545-5.109375 5.109375v17.03125c0 2.82183 2.2875451 5.109375 5.109375 5.109375h17.03125c2.8218299 0 5.109375-2.287545 5.109375-5.109375v-17.03125c0-2.82183-2.2875451-5.109375-5.109375-5.109375zm0-40.875h-17.03125c-2.8218299 0-5.109375 2.287545-5.109375 5.109375v17.03125c0 2.82183 2.2875451 5.109375 5.109375 5.109375h17.03125c2.8218299 0 5.109375-2.287545 5.109375-5.109375v-17.03125c0-2.82183-2.2875451-5.109375-5.109375-5.109375zm0-40.875h-17.03125c-2.8218299 0-5.109375 2.2875451-5.109375 5.109375v17.03125c0 2.8218299 2.2875451 5.109375 5.109375 5.109375h17.03125c2.8218299 0 5.109375-2.2875451 5.109375-5.109375v-17.03125c0-2.8218299-2.2875451-5.109375-5.109375-5.109375zm54.5 81.75h-17.03125c-2.8218299 0-5.109375 2.287545-5.109375 5.109375v17.03125c0 2.82183 2.2875451 5.109375 5.109375 5.109375h17.03125c2.82183 0 5.109375-2.287545 5.109375-5.109375v-17.03125c0-2.82183-2.287545-5.109375-5.109375-5.109375zm0-40.875h-17.03125c-2.8218299 0-5.109375 2.287545-5.109375 5.109375v17.03125c0 2.82183 2.2875451 5.109375 5.109375 5.109375h17.03125c2.82183 0 5.109375-2.287545 5.109375-5.109375v-17.03125c0-2.82183-2.287545-5.109375-5.109375-5.109375zm0-40.875h-17.03125c-2.8218299 0-5.109375 2.2875451-5.109375 5.109375v17.03125c0 2.8218299 2.2875451 5.109375 5.109375 5.109375h17.03125c2.82183 0 5.109375-2.2875451 5.109375-5.109375v-17.03125c0-2.8218299-2.287545-5.109375-5.109375-5.109375zm136.25 81.75h-17.03125c-2.82183 0-5.109375 2.287545-5.109375 5.109375v17.03125c0 2.82183 2.287545 5.109375 5.109375 5.109375h17.03125c2.82183 0 5.109375-2.287545 5.109375-5.109375v-17.03125c0-2.82183-2.287545-5.109375-5.109375-5.109375zm0-40.875h-17.03125c-2.82183 0-5.109375 2.287545-5.109375 5.109375v17.03125c0 2.82183 2.287545 5.109375 5.109375 5.109375h17.03125c2.82183 0 5.109375-2.287545 5.109375-5.109375v-17.03125c0-2.82183-2.287545-5.109375-5.109375-5.109375z" opacity=".4"/><path d="m262.28125 81.75h-57.90625v-71.53125c0-5.64365979-4.57509-10.21875-10.21875-10.21875h-61.3125c-5.64366 0-10.21875 4.57509021-10.21875 10.21875v30.65625h-27.25v-34.0625c0-3.76243986-3.0500601-6.8125-6.8125-6.8125h-6.8125c-3.7624399 0-6.8125 3.05006014-6.8125 6.8125v34.0625h-27.25v-34.0625c0-3.76243986-3.0500601-6.8125-6.8125-6.8125h-6.8125c-3.7624399 0-6.8125 3.05006014-6.8125 6.8125v34.0625h-17.03125c-5.64365979 0-10.21875 4.5750902-10.21875 10.21875v153.28125c0 7.52488 6.10012028 13.625 13.625 13.625h245.25c7.52488 0 13.625-6.10012 13.625-13.625v-112.40625c0-5.6436598-4.57509-10.21875-10.21875-10.21875zm-207.78125 90.265625c0 2.82183-2.2875451 5.109375-5.109375 5.109375h-17.03125c-2.8218299 0-5.109375-2.287545-5.109375-5.109375v-17.03125c0-2.82183 2.2875451-5.109375 5.109375-5.109375h17.03125c2.8218299 0 5.109375 2.287545 5.109375 5.109375zm0-40.875c0 2.82183-2.2875451 5.109375-5.109375 5.109375h-17.03125c-2.8218299 0-5.109375-2.287545-5.109375-5.109375v-17.03125c0-2.82183 2.2875451-5.109375 5.109375-5.109375h17.03125c2.8218299 0 5.109375 2.287545 5.109375 5.109375zm0-40.875c0 2.8218299-2.2875451 5.109375-5.109375 5.109375h-17.03125c-2.8218299 0-5.109375-2.2875451-5.109375-5.109375v-17.03125c0-2.8218299 2.2875451-5.109375 5.109375-5.109375h17.03125c2.8218299 0 5.109375 2.2875451 5.109375 5.109375zm54.5 81.75c0 2.82183-2.287545 5.109375-5.109375 5.109375h-17.03125c-2.8218299 0-5.109375-2.287545-5.109375-5.109375v-17.03125c0-2.82183 2.2875451-5.109375 5.109375-5.109375h17.03125c2.82183 0 5.109375 2.287545 5.109375 5.109375zm0-40.875c0 2.82183-2.287545 5.109375-5.109375 5.109375h-17.03125c-2.8218299 0-5.109375-2.287545-5.109375-5.109375v-17.03125c0-2.82183 2.2875451-5.109375 5.109375-5.109375h17.03125c2.82183 0 5.109375 2.287545 5.109375 5.109375zm0-40.875c0 2.8218299-2.287545 5.109375-5.109375 5.109375h-17.03125c-2.8218299 0-5.109375-2.2875451-5.109375-5.109375v-17.03125c0-2.8218299 2.2875451-5.109375 5.109375-5.109375h17.03125c2.82183 0 5.109375 2.2875451 5.109375 5.109375zm68.125 40.875c0 2.82183-2.287545 5.109375-5.109375 5.109375h-17.03125c-2.82183 0-5.109375-2.287545-5.109375-5.109375v-17.03125c0-2.82183 2.287545-5.109375 5.109375-5.109375h17.03125c2.82183 0 5.109375 2.287545 5.109375 5.109375zm0-40.875c0 2.8218299-2.287545 5.109375-5.109375 5.109375h-17.03125c-2.82183 0-5.109375-2.2875451-5.109375-5.109375v-17.03125c0-2.8218299 2.287545-5.109375 5.109375-5.109375h17.03125c2.82183 0 5.109375 2.2875451 5.109375 5.109375zm0-40.875c0 2.8218299-2.287545 5.109375-5.109375 5.109375h-17.03125c-2.82183 0-5.109375-2.2875451-5.109375-5.109375v-17.03125c0-2.8218299 2.287545-5.109375 5.109375-5.109375h17.03125c2.82183 0 5.109375 2.2875451 5.109375 5.109375zm68.125 122.625c0 2.82183-2.287545 5.109375-5.109375 5.109375h-17.03125c-2.82183 0-5.109375-2.287545-5.109375-5.109375v-17.03125c0-2.82183 2.287545-5.109375 5.109375-5.109375h17.03125c2.82183 0 5.109375 2.287545 5.109375 5.109375zm0-40.875c0 2.82183-2.287545 5.109375-5.109375 5.109375h-17.03125c-2.82183 0-5.109375-2.287545-5.109375-5.109375v-17.03125c0-2.82183 2.287545-5.109375 5.109375-5.109375h17.03125c2.82183 0 5.109375 2.287545 5.109375 5.109375z"/></g><g transform="translate(282 56)"><path d="m44.8476562 97.2117187 3.9023438-16.5867187-7.5-13.125h22.5l-7.5 13.125 3.9023437 16.5867187-7.6523437 15.2882813zm7.6523438-37.2117187c16.5685425 0 30-13.4314575 30-30s-13.4314575-30-30-30-30 13.4314575-30 30 13.4314575 30 30 30z" opacity=".4"/><path d="m74.953125 67.640625-22.453125 44.859375-22.453125-44.859375c-16.7109375.796875-30.046875 14.4609375-30.046875 31.359375v9.75c0 6.213203 5.03679656 11.25 11.25 11.25h82.5c6.2132034 0 11.25-5.036797 11.25-11.25v-9.75c0-16.8984375-13.3359375-30.5625-30.046875-31.359375z"/></g></g></svg>

<svg xmlns="http://www.w3.org/2000/svg" width="450" height="450" viewBox="0 0 450 450">
  <g fill="none" fill-rule="evenodd">
    <g fill="#000" fill-rule="nonzero" transform="translate(62 176)">
      <path d="M49.390625,149.875 L32.359375,149.875 C29.5375451,149.875 27.25,152.162545 27.25,154.984375 L27.25,172.015625 C27.25,174.837455 29.5375451,177.125 32.359375,177.125 L49.390625,177.125 C52.2124549,177.125 54.5,174.837455 54.5,172.015625 L54.5,154.984375 C54.5,152.162545 52.2124549,149.875 49.390625,149.875 Z M49.390625,109 L32.359375,109 C29.5375451,109 27.25,111.287545 27.25,114.109375 L27.25,131.140625 C27.25,133.962455 29.5375451,136.25 32.359375,136.25 L49.390625,136.25 C52.2124549,136.25 54.5,133.962455 54.5,131.140625 L54.5,114.109375 C54.5,111.287545 52.2124549,109 49.390625,109 Z M49.390625,68.125 L32.359375,68.125 C29.5375451,68.125 27.25,70.4125451 27.25,73.234375 L27.25,90.265625 C27.25,93.0874549 29.5375451,95.375 32.359375,95.375 L49.390625,95.375 C52.2124549,95.375 54.5,93.0874549 54.5,90.265625 L54.5,73.234375 C54.5,70.4125451 52.2124549,68.125 49.390625,68.125 L49.390625,68.125 Z M103.890625,149.875 L86.859375,149.875 C84.0375451,149.875 81.75,152.162545 81.75,154.984375 L81.75,172.015625 C81.75,174.837455 84.0375451,177.125 86.859375,177.125 L103.890625,177.125 C106.712455,177.125 109,174.837455 109,172.015625 L109,154.984375 C109,152.162545 106.712455,149.875 103.890625,149.875 Z M103.890625,109 L86.859375,109 C84.0375451,109 81.75,111.287545 81.75,114.109375 L81.75,131.140625 C81.75,133.962455 84.0375451,136.25 86.859375,136.25 L103.890625,136.25 C106.712455,136.25 109,133.962455 109,131.140625 L109,114.109375 C109,111.287545 106.712455,109 103.890625,109 Z M103.890625,68.125 L86.859375,68.125 C84.0375451,68.125 81.75,70.4125451 81.75,73.234375 L81.75,90.265625 C81.75,93.0874549 84.0375451,95.375 86.859375,95.375 L103.890625,95.375 C106.712455,95.375 109,93.0874549 109,90.265625 L109,73.234375 C109,70.4125451 106.712455,68.125 103.890625,68.125 L103.890625,68.125 Z M240.140625,149.875 L223.109375,149.875 C220.287545,149.875 218,152.162545 218,154.984375 L218,172.015625 C218,174.837455 220.287545,177.125 223.109375,177.125 L240.140625,177.125 C242.962455,177.125 245.25,174.837455 245.25,172.015625 L245.25,154.984375 C245.25,152.162545 242.962455,149.875 240.140625,149.875 Z M240.140625,109 L223.109375,109 C220.287545,109 218,111.287545 218,114.109375 L218,131.140625 C218,133.962455 220.287545,136.25 223.109375,136.25 L240.140625,136.25 C242.962455,136.25 245.25,133.962455 245.25,131.140625 L245.25,114.109375 C245.25,111.287545 242.962455,109 240.140625,109 Z" opacity=".4"/>
      <path d="M262.28125,81.75 L204.375,81.75 L204.375,10.21875 C204.375,4.57509021 199.79991,0 194.15625,0 L132.84375,0 C127.20009,0 122.625,4.57509021 122.625,10.21875 L122.625,40.875 L95.375,40.875 L95.375,6.8125 C95.375,3.05006014 92.3249399,0 88.5625,0 L81.75,0 C77.9875601,0 74.9375,3.05006014 74.9375,6.8125 L74.9375,40.875 L47.6875,40.875 L47.6875,6.8125 C47.6875,3.05006014 44.6374399,0 40.875,0 L34.0625,0 C30.3000601,0 27.25,3.05006014 27.25,6.8125 L27.25,40.875 L10.21875,40.875 C4.57509021,40.875 0,45.4500902 0,51.09375 L0,204.375 C0,211.89988 6.10012028,218 13.625,218 L258.875,218 C266.39988,218 272.5,211.89988 272.5,204.375 L272.5,91.96875 C272.5,86.3250902 267.92491,81.75 262.28125,81.75 Z M54.5,172.015625 C54.5,174.837455 52.2124549,177.125 49.390625,177.125 L32.359375,177.125 C29.5375451,177.125 27.25,174.837455 27.25,172.015625 L27.25,154.984375 C27.25,152.162545 29.5375451,149.875 32.359375,149.875 L49.390625,149.875 C52.2124549,149.875 54.5,152.162545 54.5,154.984375 L54.5,172.015625 Z M54.5,131.140625 C54.5,133.962455 52.2124549,136.25 49.390625,136.25 L32.359375,136.25 C29.5375451,136.25 27.25,133.962455 27.25,131.140625 L27.25,114.109375 C27.25,111.287545 29.5375451,109 32.359375,109 L49.390625,109 C52.2124549,109 54.5,111.287545 54.5,114.109375 L54.5,131.140625 Z M54.5,90.265625 C54.5,93.0874549 52.2124549,95.375 49.390625,95.375 L32.359375,95.375 C29.5375451,95.375 27.25,93.0874549 27.25,90.265625 L27.25,73.234375 C27.25,70.4125451 29.5375451,68.125 32.359375,68.125 L49.390625,68.125 C52.2124549,68.125 54.5,70.4125451 54.5,73.234375 L54.5,90.265625 Z M109,172.015625 C109,174.837455 106.712455,177.125 103.890625,177.125 L86.859375,177.125 C84.0375451,177.125 81.75,174.837455 81.75,172.015625 L81.75,154.984375 C81.75,152.162545 84.0375451,149.875 86.859375,149.875 L103.890625,149.875 C106.712455,149.875 109,152.162545 109,154.984375 L109,172.015625 Z M109,131.140625 C109,133.962455 106.712455,136.25 103.890625,136.25 L86.859375,136.25 C84.0375451,136.25 81.75,133.962455 81.75,131.140625 L81.75,114.109375 C81.75,111.287545 84.0375451,109 86.859375,109 L103.890625,109 C106.712455,109 109,111.287545 109,114.109375 L109,131.140625 Z M109,90.265625 C109,93.0874549 106.712455,95.375 103.890625,95.375 L86.859375,95.375 C84.0375451,95.375 81.75,93.0874549 81.75,90.265625 L81.75,73.234375 C81.75,70.4125451 84.0375451,68.125 86.859375,68.125 L103.890625,68.125 C106.712455,68.125 109,70.4125451 109,73.234375 L109,90.265625 Z M177.125,131.140625 C177.125,133.962455 174.837455,136.25 172.015625,136.25 L154.984375,136.25 C152.162545,136.25 149.875,133.962455 149.875,131.140625 L149.875,114.109375 C149.875,111.287545 152.162545,109 154.984375,109 L172.015625,109 C174.837455,109 177.125,111.287545 177.125,114.109375 L177.125,131.140625 Z M177.125,90.265625 C177.125,93.0874549 174.837455,95.375 172.015625,95.375 L154.984375,95.375 C152.162545,95.375 149.875,93.0874549 149.875,90.265625 L149.875,73.234375 C149.875,70.4125451 152.162545,68.125 154.984375,68.125 L172.015625,68.125 C174.837455,68.125 177.125,70.4125451 177.125,73.234375 L177.125,90.265625 Z M177.125,49.390625 C177.125,52.2124549 174.837455,54.5 172.015625,54.5 L154.984375,54.5 C152.162545,54.5 149.875,52.2124549 149.875,49.390625 L149.875,32.359375 C149.875,29.5375451 152.162545,27.25 154.984375,27.25 L172.015625,27.25 C174.837455,27.25 177.125,29.5375451 177.125,32.359375 L177.125,49.390625 Z M245.25,172.015625 C245.25,174.837455 242.962455,177.125 240.140625,177.125 L223.109375,177.125 C220.287545,177.125 218,174.837455 218,172.015625 L218,154.984375 C218,152.162545 220.287545,149.875 223.109375,149.875 L240.140625,149.875 C242.962455,149.875 245.25,152.162545 245.25,154.984375 L245.25,172.015625 Z M245.25,131.140625 C245.25,133.962455 242.962455,136.25 240.140625,136.25 L223.109375,136.25 C220.287545,136.25 218,133.962455 218,131.140625 L218,114.109375 C218,111.287545 220.287545,109 223.109375,109 L240.140625,109 C242.962455,109 245.25,111.287545 245.25,114.109375 L245.25,131.140625 Z"/>
    </g>
    <g fill="#000" fill-rule="nonzero" transform="translate(282 56)">
      <path d="M44.8476562,97.2117187 L48.75,80.625 L41.25,67.5 L63.75,67.5 L56.25,80.625 L60.1523437,97.2117187 L52.5,112.5 L44.8476562,97.2117187 Z M52.5,60 C69.0685425,60 82.5,46.5685425 82.5,30 C82.5,13.4314575 69.0685425,0 52.5,0 C35.9314575,0 22.5,13.4314575 22.5,30 C22.5,46.5685425 35.9314575,60 52.5,60 Z" opacity=".4"/>
      <path d="M74.953125,67.640625 L52.5,112.5 L30.046875,67.640625 C13.3359375,68.4375 0,82.1015625 0,99 L0,108.75 C0,114.963203 5.03679656,120 11.25,120 L93.75,120 C99.9632034,120 105,114.963203 105,108.75 L105,99 C105,82.1015625 91.6640625,68.4375 74.953125,67.640625 L74.953125,67.640625 Z"/>
    </g>
  </g>
</svg>
